!!!OTL: 20. Borussia. / Am 18. Okt. 1818 zuerst gesungen.
!!!ARE: Europa, Mitteleuropa, Deutschland, Preussen
!!!SCT: B0020
!!!TXL: @@DE
!!!YEM: Copyright 1995, estate of Helmut Schaffrath.
**kern	**text
*ICvox	*
*Ivox	*
*M4/4	*
*met(c)	*
*clefG2	*
*k[f#]	*
*G:	*
{16d	Wo
8.g	iſt
16a	das
=1	=1
4.b	Volk,
8b	das
8.ddL	kühn
16ccJ	.
8.bL	von
16aJ	.
=2	=2
2g	That,
8.r}	.
{16g#	der
8.a	Ty-
16b	-ran-
=3	=3
4.cc	-nei
8a	den
4.g#	Kopf
16aL	ʒer-
16bJ	.
=4	=4
2e	-trat,
8.r}	.
{16e	der
8.b	Ty-
16a	-ran-
=5	=5
8.aL	-nei
16bJ	.
8.cc#L	den
16ddJ	.
4d	Kopf
8.f#L	ʒer-
16eJ	.
=6	=6
2d	-trat?
4r}	.
{4d	Wie
=7	=7
2.cc	groß,
8.b/	un-
16a	-be-
=8	=8
2.b}	-ʒwun-
{8.gL	-gen
16bJ	.
=9	=9
[2dd	ſteht
8.ddL]	.
16bJ	.
8.aL	es
16gJ	.
=10	=10
2a	da!
8.r}	.
{16dd	Es
8.cc	iſt
16a	dein
=11	=11
(<4g	Volk,
[4b)	.
8.b]	.
16b	Bo-
8.dd	-ruſ-
16cc	-ſi-
=12	=12
2a	-a!
8.r}	.
{16a	es
8.b	iſt
16cc	dein
=13	=13
4..dd	Volk,
16ee	Bo-
8.ddL	-ruſ-
16ccJ	.
8.bL	-ſi-
16aJ	.
=14	=14
4g	-a,
8.r}	.
{16b	es
4.dd	iſt
16bL	dein
16gJ	.
=15	=15
4.dd	Volk,
16bL	Bo-
16gJ	.
4.d	-ruſ-
16eL	-ſi-
16f#J	.
=16	=16
2g	-a!
4r}	.
{4d	Wie
=17	=17
2.cc	groß,
8.b/	un-
16a	-be-
=18	=18
2.b}	-ʒwun-
{8.gL	-gen
16bJ	.
=19	=19
[2dd	ſteht
8.ddL]	.
16bJ	.
8.aL	es
16gJ	.
=20	=20
2a	da!
8.r}	.
{16dd	Es
8.cc	iſt
16a	dein
=21	=21
(<4g	Volk,
[4b)	.
8.b]	.
16b	Bo-
8.dd	-ruſ-
16cc	-ſi-
=22	=22
2a	-a!
8.r}	.
{16a	es
8.b	iſt
16cc	dein
=23	=23
4..dd	Volk,
16ee	Bo-
8.ddL	-ruſ-
16ccJ	.
8.bL	-ſi-
16aJ	.
=24	=24
4g	-a,
8.r}	.
{16b	es
4.dd	iſt
16bL	dein
16gJ	.
=25	=25
4.dd	Volk,
16bL	Bo-
16gJ	.
4.d	-ruſ-
16eL	-ſi-
16f#J	.
=26	=26
2g	-a!
8.r}	.
==	==
!!!AGN: politisch, national, Vaterlands - Lied
!!!GTL: Vaterlandslieder und Heimathgrüße
!!!ONB: ESAC (Essen Associative Code) Database: BOEHME
!!!AMT: simple quadruple
!!!AIN: vox
!!!EED: Helmut Schaffrath
!!!EEV: 1.0
!!@@COMMENT:"Gedict don Jos. Friedrich Leopold Duncker (+ 1832 in Berlin). Das Lied wurde zuerst
!! mit Spontiniג€™s Komposition am 18. Okt. 1818 im Berliner Opernhause gesungen und vom Jahr
!! 1820 an zur Feier des Geburtstags Friedrich Wilhem III. am 3. Aug. Jedes Jahres wiederholt."
!!@@END:
!!Text: Jos. Friedrich Leopold Duncker
!!!URL-scan: https://archive.org/details/BoehmeVtLieder1895/page/n41/mode/2up
!!!ENC: Anna Maria Matuszewska
!!!EEV: 2024/13/06
*-	*-
